X:1
T:La terrasse des audiences du clair de lune
T:La terrasse des audiences du clair de lune
T:No 8 from Preludes Book 2
T:Claude Debussy (1862-1918)
C:Claude Debussy (1862-1918)
%%score { ( 1 6 ) | ( 2 3 8 ) | ( 4 5 7 ) }
L:1/8
Q:1/8=72
M:6/8
K:F#
V:1 treble nm="Grand Piano" snm="Pno."
V:6 treble 
V:2 treble 
V:3 treble 
V:8 treble 
V:4 bass 
V:5 bass 
V:7 bass 
V:1
"^Lent" z2 z z z!ppp!!8va(! (=g'/4_a'/4g'/4_g'/4 | %1
 =f'/4_g'/4f'/4=d'/4c'/4=c'/4b/4_a/4!8va)! =g/4a/4g/4_g/4=f/4g/4f/4=d/4 c/4=c/4B/4_A/4=G/4F/4=F/4=D/4) | %2
!pp!!<(! (!tenuto![B,C]2!<)!!p! [=d=f_a_b])!pp!!<(! (!tenuto![B,C]2!<)!!p! [dfab]) | %3
 z z z/ .[=d=f_a_b]/ z z/ .[dfab]/z/.[=A=c_e=f]/ | %4
 z!8va(! (=g'/4_a'/4g'/4_g'/4=f'/4g'/4f'/4=d'/4)(c'/4=c'/4b/4_a/4!8va)!=g/4a/4g/4_g/4=f/4g/4f/4=d/4) | %5
 (c/4=c/4B/4_A/4=G/4A/4G/4_G/4=F/4G/4F/4=D/4) x3 | %6
 z!pp! (.[fad'f']/.[fad'f']/.[fad'f']/.[=gb=e'=g']/ .[fad'f']!<(!.[=d=f_b=d']!<)!!p!.[=e^gc'=e']-) | %7
 [egc'e']3 z !tenuto![=d=f_b=d']2 ||[K:Bb][M:3/8] x3 || %9
[M:6/8][Q:1/8=80]"^Un peu animé" x3 x z/!<(! (=d'/8a/8f/8!<)!!p!d/8)[I:staff +1]([_EFA_e]/F,/) | %10
[I:staff -1] x3 x z/!<(! (=d'/8a/8f/8!<)!!p!d/8)[I:staff +1]([_EFA_e]/F,/) | %11
[I:staff -1] z/!pp! (d'/8a/8f/8d/8)[I:staff +1]([_EFA_e]/F,/-)F, (10:8:10(^E,/8^G,/8=B,/8^D/8^E/8^G/8=B/8[I:staff -1]^d/8^e/8=b/8- [^db-^d'])!tenuto![dbd']- || %12
[K:F#][Q:1/4=38]"^au Mouvt."!pp! ([dbd']2 [=d=d'] [cc']>[^B^b][cc']/[^^c^^c']/ | %13
 [dbd']2!<(!!8va(! [a=d'a']2 [eae']2)!<)! ||[M:3/8]!p!!>(! ([gbg']2 [f^bf'])!8va)!!>)! || %15
[M:6/8]!pp! [cc']3- [cc'] [cc']2 | z [cc']2 z [cc']2 | [cc']3- [cc'] [cc']2 | %18
!<(! ([cc']>[Bb][Bb]/[cc']/) ([cc']>[Bb][Bb]/!<)!!p![cc']/) || %19
[M:9/8]!pp![Q:1/4=38]"^En animant peu à peu" ([f=d'f']>[ec'e'][ec'e']/[fd'f']/)[Q:1/8=78] ([fd'f']/[cac']/)([cac']/[=dad']/[cac']/[=e=c'=e']/)[Q:1/8=79] ([Afa]>[B=gb][Afa]/[^c=a^c']/) || %20
[M:6/8]!p![Q:1/8=80]!<(! ([=E=c=e]>[DBd][Ece]/[DBd]/[Q:1/8=81] [=D_B=d][Geg]!<)!!mp![Fdf]) | %21
!p![Q:1/8=82]!<(! ([=E=c=e]>[DBd][Ece]/[DBd]/[Q:1/8=83] [=D_B=d][=A=f=a]!<)!!mp![Geg]) | %22
!p![Q:1/8=84]!<(! ([=G_e=g]>[F=df][Geg]/[Fdf]/[Q:1/8=85] [=Fc=f]) ([Bgb][=Af=a])!<)! | %23
[Q:1/8=86]!mp!!<(! ([dbd'][c=ac'])!8va(! ([=gd'=g'][=fc'=f'])!<)![Q:1/4=40]"^Cédez"!mf!!>(! ([a=c'f'=a'][Q:1/8=78][gc'=e'g'])!>)! || %24
[K:Eb]!pp![Q:1/4=38]"^Mouvt. du début" ([be'g'b']>[_c'_f'a'_c''])([c'f'a'c'']/[be'g'b']/)!<(! ([be'g'b']2 [g=c'=e'g']) | %25
 ([d'g'=b'd'']2 [e'a'c''e''])!<)!!mp!!>(! ([c'f'=a'c'']2 [_d'_g'_b'_d''])!>)! | %26
!p! ([be'g'b']>[_c'_f'a'_c''])([c'f'a'c'']/[be'g'b']/) ([be'g'b']2 [g=c'=e'g'])!8va)! || %27
[K:C][Q:1/4=40]"^En animant"!8va(!"_poco cresc." [d'g'd'']2!8va)! z!8va(! [d'g'd'']2!8va)! z | %28
!mp! x6 |!f!!<(! ([FGBdg]2!<)!!ff! [abd'a'])!f!!<(! ([FGBdg]2!<)!!ff! [abd'a']) | %30
!f!!<(! (!tenuto![FGBdg]!tenuto![_A_Bdf_b]!tenuto![=B^e^g^c']!<)!!ff!!>(! !tenuto![d=eg=be']!8va(![f=gbd'g']!tenuto![_a_bd'f'_b'])!>)! || %31
[K:F#]!pp![Q:1/4=38]"^Mouvt." x/ ([d'd'']2 [=d'=d''] [c'c'']>[^b^b'][c'c'']/[^^c'^^c'']/)!8va)! | %32
 x/!8va(! [d'g'b'd'']2!8va)! x4 |!pp! ([Gg]2 [Ff] [Cc]3) | ([Gg]2 [Ff] [Cc]3) | x6 | %36
 z!pp! !tenuto![ce!courtesy!^gc']2 x3 | %37
 z !tenuto![cegc']2 (=g/4_a/4g/4_g/4=f/4g/4f/4=d/4c/4=c/4B/4(=G/4 | %38
[Q:1/4=36]"^Plus lent"[I:staff +1] [FA]>)[I:staff -1].[FA].[FA]/.[=GB]/-) ([GB][FA][CE]) | %39
 z .[Cc]2 z .[cc']2 | z2 z z!8va(! [c'c'']2 | !arpeggio!c''2 x x3 | c''2 x x3 | x6 | %44
 [c'c'']2!8va)! z z2 z |] %45
V:2
 x6 | z z"_un peu en dehors" (!>!.[B,B][K:bass] !>!.[=F,=F]!>!.[=G,=G]!>!.[B,,B,]) | %2
 (!tenuto![E,G,]2[K:treble] [=D=F_A_B])[K:bass] (!tenuto![E,G,]2[K:treble] [DFAB]) | %3
!pp!!<(! [B,C]/[I:staff -1][=D=F_A_B]<[I:staff +1][=C_E_G_A]!<)!!p![=D=F_A_B]/!pp! [=B,^C]/[I:staff -1][DFAB]/[I:staff +1][=CEGA]/!>(![DFAB]/[^A,^C=E^F]/!>)!!ppp![=A,=C_E=F]/ | %4
[K:bass]!pp! [E,G,B,C]6[K:treble][K:bass] | %5
 x3[I:staff -1] (C/4=C/4[I:staff +1]B,/4_A,/4=G,/4F,/4=F,/4=D,/4B,,/4=G,,/4F,,/4=E,,/4) | %6
 z[K:treble] (.[DFAd]/.[DFAd]/.[DFAd]/.[=E=GB=e]/ .[DFAd].[_B,=D=F_B].[CE^Gc]-) | %7
 [CEGc]3 z[K:bass] !tenuto![=F,_B,=D=F]2- || %8
[K:Bb][M:3/8] [F,B,DF]!p!"_marqué" !tenuto![F,B,DF]2- || %9
[M:6/8] ([F,B,DF]7/4!pp![I:staff -1].[_D=EG]/4)[I:staff +1](!tenuto![F,B,!courtesy!=DF]/[I:staff -1].[_DEA]/)[I:staff +1] (!tenuto![F,B,=DF]/[I:staff -1].[_DEGc]/)[I:staff +1]!tenuto![F,B,=DF][K:treble]!pp!!>(! x/[K:bass] F,/-!>)! | %10
!pp! ([F,B,DF]7/4[I:staff -1].[_D=EG]/4)[I:staff +1](!tenuto![F,B,!courtesy!=DF]/[I:staff -1].[_DEA]/)[I:staff +1] (!tenuto![F,B,=DF]/[I:staff -1].[_DEGc]/)[I:staff +1]!tenuto![F,B,=DF][K:treble]!pp!!>(! x/[K:bass] F,/-!>)! | %11
 F,3[K:treble][K:bass]!<(! x!<)!!p! x !tenuto!!courtesy!^D- ||[K:F#] D2 =E ^E>FE/=E/ | %13
 D2[K:treble] G2 A2 ||[M:3/8] (B2 ^B) ||[M:6/8] (^^F>GG/=G/ G/^F/F/E/E/F/) | %16
 (^^F>GG/F/) (F>GF/G/) | (^^G>AA/G/ G/A/A/G/G/^G/) | (=G=EG- GE^E) || %19
[M:9/8][K:bass] z ([B,,F,]/[=D,G,]/.[F,B,]) z ([D,G,]/[F,B,]/.[G,=D]) z/ G,/B,/D/F/=F/ || %20
[M:6/8] ([=D,F,=C]2 [^D,^^F,^C] [=E,G,=D]3) | %21
 ([=D,F,=C]2 [^D,^^F,^C] [=E,G,=D][=F,=A,_E][^F,^A,=E]) | ([=G,B,=F]2 [^G,^B,^F] [=A,C=G]3) | %23
[K:treble] [B,D=A]2 ([EB]c) (.[=FA=c=f].[=C=E=Gc]) || %24
[K:Eb]!pp! z{/_c} !tenuto![EGB] z z{/=c} !tenuto![EGB] z | %25
 z{/=e} !tenuto![G=Bd] z z{/d} !tenuto![F=Ac] z | z{/_c} !tenuto![EGB] z z{/=c} !tenuto![EGB] z || %27
[K:C][K:bass] z3/4 (D,/4 G,2) z3/4 (D,/4 G,2) | %28
[K:treble] (!tenuto![B,D]!tenuto![DF]!tenuto![^E^G] !tenuto![=EGB]!tenuto![^E=G]!tenuto![^FA]) | %29
 ([D,F,G,B,D]2[K:treble] [FABd])[K:bass] ([D,F,G,B,D]2[K:treble] [FABd]) | %30
[K:bass] (!tenuto![D,F,G,B,D]!tenuto![F,_A,_B,DF]!tenuto![^G,=B,^C^E^G][K:treble] !tenuto![B,D=EGB]!tenuto![D=F=GBd]!tenuto![F_A_Bdf]) || %31
[K:F#] x/ (d2 [=E=e] ^e>fe/=e/) | %32
[I:staff +1] (7:4:7(!courtesy!^E,/8B,/8D/8E/8[I:staff -1]G/8B/8d/8-) ([Dd]2!<(![I:staff -1] [Aa]2!<)!!p! [Ee]2) | %33
[I:staff +1][K:bass] (^B,>CC/B,/) (B,/=B,/ B,/^A,/A,/B,/) | (^B,>CC/B,/) (B,/=B,/ B,/^A,/A,/B,/-) | %35
 (B,>=F,=G,/B,,/- B,,=F,,=G,,) | %36
[K:treble] z !tenuto![=DE]2 (=G/4_A/4G/4_G/4=F/4G/4F/4D/4C/4=C/4B,/4_A,/4) | %37
 z !tenuto![=DE]2 z z2 | (C3/2 .C/.C/.=D/-) (DC!courtesy!^G,) | B,3 =D3 | %40
 z/!p!!<(! ([=GB]/[=E^G]/[=F=A]/[_A=c]/!<)!!mp!!>(![=GB]/-!>)!!p! [GB]2 [B=d]) | %41
!pp! (!arpeggio!.[cf]3/4.[=c=g]3/4.[=d=a]3/4.[=eb]3/4) (.f3/4.[cg]3/4.[da]3/4.[eb]3/4) | %42
 (!arpeggio!.[cf]3/4.[=c=g]3/4.[=d=a]3/4.[=eb]3/4) (.f3/4.[cg]3/4.[da]3/4.[eb]3/4) | %43
[I:staff +1]{/[F,=G]}[I:staff -1] !tenuto![CFAc]3[I:staff +1]{/[F,G]}[I:staff -1] !tenuto![CFAc]3- | %44
 [CFAc]2 z z2 z |] %45
V:3
 z!pp! (.[EG]/.[EG]/.[EG]/.[FA]/ .[EG].[=D=E] !>!!tenuto![=F=G]-) | [FG]6[K:bass] | %2
 x2[K:treble] x[K:bass] x2[K:treble] x | x6 | %4
[K:bass] z z[K:treble] .[B,B][K:bass] .[=F,=F].[=G,=G].[B,,B,] | x6 | x[K:treble] x5 | %7
 x4[K:bass] x2 ||[K:Bb][M:3/8] x3 ||[M:6/8] x5[K:treble] x/[K:bass] x/ | %10
 x5[K:treble] x/[K:bass] x/ | x[K:treble] x/[K:bass] x/-x- ^E,3 ||[K:F#] [E,G,B,]3 [G,B,C]3 | %13
 [E,G,B,]2[K:treble] [B,=DE]4 ||[M:3/8] [=A,^DF]3 ||[M:6/8] [B,C]2 [B,C]- [B,C] [B,C]2 | %16
 [B,C]2 [B,C] [B,C]2 [B,C] | [B,C]2 [B,C]- [B,C] [B,C]2 | x6 ||[M:9/8][K:bass] x9 || %20
[M:6/8] x3 z z _B,,/=C,/ | x6 | x6 |[K:treble] x2 C2 x2 ||[K:Eb] x6 | x6 | x6 || %27
[K:C][K:bass] z3/4 (D,,/4 G,,2) z3/4 (D,,/4 G,,2) |[K:treble] x6 | %29
 x2[K:treble] x[K:bass] x2[K:treble] x |[K:bass] x3[K:treble] x3 || %31
[K:F#][I:staff +1] (7:4:7(E,/8B,/8D/8E/8[I:staff -1]G/8-[xB]/8-[GBd]/8-) [GB]3[I:staff +1] E>[I:staff -1]FE/=E/ | %32
 x13/2 |[K:bass] [C,F,=A,]3 [=F,=G,]3 | [C,F,=A,]3 [=F,=G,]3 | x6 |[K:treble] x6 | x6 | x6 | x6 | %40
 x6 | x6 | x6 | x6 | x6 |] %45
V:4
 z!ped! (.[B,D]/.[B,D]/.[B,D]/!ped-up!!ped!.[B,D]/!ped-up!!ped! .[B,D]!ped-up!!ped!.[G,B,]!ped-up!!ped!!>!!tenuto![B,D]-) | %1
!8vb(! [B,,D,]6!ped-up!!8vb)! | %2
!ped! x!8vb(! x!ped-up!!8vb)!!ped! x!ped-up!!ped! x!8vb(! x!ped-up!!8vb)!!ped! x!ped-up! | %3
!ped! [E,G,]/!ped-up!!ped! x/!ped-up!!ped! x3/2!ped-up!!ped! x/!ped-up!!ped! [^E,^G,]/!ped-up!!ped! x/!ped-up!!ped! x/!ped-up!!ped! x/!ped-up!!ped! x/!ped-up!!ped! x/!ped-up! | %4
!8vb(!!ped! C,,,6!8vb)!!ped-up! |!8vb(!!ped! C,,,6!8vb)!!ped-up!!ped!!ped-up! | %6
!ped!!8vb(! x2 x/!ped-up!!ped! x/!8vb)!!ped-up!!ped! x!ped-up!!ped! x!ped-up!!ped! x!ped-up! | %7
!pp!!>(!!ped! [G,,C,]3!>)!!ped-up!!pp!!ped! [=F,,_B,,]3- ||[K:Bb][M:3/8] [F,,B,,]3- || %9
[M:6/8] [F,,B,,]"_tre corde" x3/4!ped-up! x/4!ped! x/!ped-up! x/!ped! x/!ped-up! x/!ped! x!ped-up!!ped! x/!ped-up!!ped! x/!ped-up! | %10
!8vb(! x2!8vb)!!ped! x/!ped-up! x/!ped! x/!ped-up! x/!ped! x!ped-up!!ped! x/!ped-up!!ped! x/ | %11
 x!ped-up!!ped! x/!ped-up!!ped! x/ x4!ped-up! || %12
[K:F#]!ped! x2!ped-up!!ped! x!ped-up!!ped! x3/2!ped-up!!ped! x/!ped-up!!ped! x/!ped-up!!ped! x/!ped-up! | %13
!ped! x2!ped-up!!ped! x2!ped-up!!ped! x2!ped-up! ||[M:3/8]!ped! x2!ped-up!!ped! x!ped-up! || %15
[M:6/8]!ped! x!8vb(! x!ped-up!!ped! x!ped-up!!ped! x!ped-up!!ped! x!ped-up!!ped! x!8vb)!!ped-up! | %16
!ped! x!8vb(! x!ped-up!!ped! x!8vb)!!ped-up!!ped! x!8vb(! x!ped-up!!ped! x!8vb)!!ped-up! | %17
!ped! x!8vb(! x!ped-up!!ped! x!ped-up!!ped! x!ped-up!!ped! x!ped-up!!ped! x!8vb)!!ped-up! | %18
!ped! x!ped-up!!ped! x!ped-up!!ped! x!ped-up!!ped! x!ped-up!!ped! x!ped-up!!ped! x!ped-up! || %19
[M:9/8]!ped! [G,,,G,,]2!ped-up!!ped! z!ped-up!!ped! [B,,,B,,]2!ped-up!!ped! z!ped-up!!ped! [=D,,=D,]2!ped-up!!ped! z!ped-up! || %20
[M:6/8]!ped! x x!ped-up!!ped! x!ped-up!!ped! x!ped-up!!ped! x!ped-up!!ped! x!ped-up! | %21
!ped! x x!ped-up!!ped! x!ped-up!!ped! x!ped-up!!ped! x!ped-up!!ped! x!ped-up! | %22
!ped! x x!ped-up!!ped! x!ped-up!!ped! x!ped-up!!ped! x!ped-up!!ped! x!ped-up! | %23
!ped! x!ped-up!!ped! x!ped-up!!ped! x!ped-up!!ped! x!ped-up!!ped! x!ped-up!!ped! x!ped-up! || %24
[K:Eb]!ped! z{/_C} !tenuto![E,G,B,]!ped-up!!ped! z!ped-up!!ped! z{/=C} !tenuto![E,G,B,]!ped-up!!ped! z!ped-up! | %25
!ped! z{/=E} !tenuto![G,=B,D]!ped-up!!ped! z!ped-up!!ped! z{/D} !tenuto![F,=A,C]!ped-up!!ped! z!ped-up! | %26
!ped! z{/_C} !tenuto![E,G,B,]!ped-up!!ped! z!ped-up!!ped! z{/=C} !tenuto![E,G,B,]!ped-up!!ped! z!ped-up! || %27
[K:C]!ped! z z!ped-up!!ped! !tenuto![D,F,G,B,D]!ped-up!!ped! z z!ped-up!!ped! !tenuto![D,F,G,B,D]- | %28
 ([D,F,G,B,D]!ped-up!!ped!!tenuto![F,_A,_B,]!ped-up!!ped!!tenuto![^G,=B,^C]!ped-up!!ped! !tenuto![B,D]!ped-up!!ped!!tenuto![G,B,C]!ped-up!!ped!!tenuto![=A,=CD])!ped-up! | %29
!ped! z3/4!<(! (D,/4!<)! [G,,G,]2)!ped-up!!ped! z3/4!<(! (D,/4!<)! [G,,G,]2)!ped-up! | %30
!ped! x!ped-up!!ped! x!ped-up!!ped! x!ped-up!!ped! x!ped-up!!ped! x!ped-up!!ped! x!ped-up! || %31
[K:F#]!pp!!ped! x/ D2!ped-up!!ped! x/!ped-up!!ped! x/- E,3!ped-up!!ped!!ped-up!!ped!!ped-up!!ped!!ped-up! | %32
!ped! x/- E,6!ped-up! | %33
!ped! z x!ped-up!!ped! x!ped-up!!ped! z!ped-up![K:treble]!ped! (.[=F=G=g].[=fg=g'])!ped-up! | %34
[K:bass]!ped! z x!ped-up!!ped! x!ped-up!!ped! z!ped-up![K:treble]!ped! (.[=F=G=g].[=fg=g'])!ped-up! | %35
[K:bass] x6 |"_una corda"!pp!!ped! z !tenuto![E,!courtesy!^G,B,]2!ped-up!!ped! x3!ped-up! | %37
!pp!!ped! z !tenuto![E,G,B,]2!ped-up!!ped! x3!ped-up! | %38
!ped! x2 x/!ped-up!!ped! x/ x!ped-up!!ped! x!ped-up!!ped! x!ped-up! | %39
!ped! x3!ped-up!!ped! x3!ped-up! |[K:treble] z/ (=D/B,/=C/_E/!ped!D/- D2 =G)!ped-up! | %41
!ped! F6!ped-up! |!ped! F6!ped-up! | %43
[K:bass]"_(timbrez légèrement\nla petite note)\n"!ped! z2 z z2 C,, | %44
 F,,,3-!ped-up!!ped! F,,,!ped-up! z z |] %45
V:5
 x6 |!8vb(! !>!C,,,6!8vb)! | z!8vb(! !tenuto!C,,,2!8vb)! z!8vb(! !tenuto!C,,,2!8vb)! | x6 | %4
!8vb(! x6!8vb)! |!8vb(! x3!8vb)! x3 |!8vb(! [D,,,D,,]2- [D,,,D,,]!8vb)! z2 z | %7
 [C,,,C,,]3 [_B,,,,_B,,,]3- ||[K:Bb][M:3/8] [B,,,,B,,,]3- ||[M:6/8] [B,,,,B,,,] x5 | %10
!8vb(! B,,,,2!8vb)! x4 | x6 ||[K:F#] x6 | x6 ||[M:3/8] x3 ||[M:6/8] z!8vb(! C,,,2- C,,,3!8vb)! | %16
 z!8vb(! C,,,2!8vb)! z!8vb(! C,,,2!8vb)! | z!8vb(! C,,,2- C,,,3!8vb)! | [=A,B,=D]6 ||[M:9/8] x9 || %20
[M:6/8] z G,,,2- G,,, z2 | z G,,,2- G,,, z2 | z !courtesy!^G,,,2 z [=G,,,=G,,]2 | %23
 z [=G,,,=G,,]2 z2 z || %24
[K:Eb] ([E,,,B,,,E,,]>[_F,,,_C,,_F,,])([F,,,C,,F,,]/[E,,,B,,,E,,]/) ([E,,,B,,,E,,]2 [=C,,,G,,,=C,,]) | %25
 ([G,,,D,,G,,]2 [A,,,E,,A,,]) ([F,,,C,,F,,]2 [_G,,,_D,,_G,,]) | %26
 ([E,,,B,,,E,,]>[_F,,,_C,,_F,,])([F,,,C,,F,,]/[E,,,B,,,E,,]/) ([E,,,B,,,E,,]2 [=C,,,G,,,=C,,]) || %27
[K:C] [G,,,D,,G,,]2 z [G,,,D,,G,,]2 z | x6 | z3/4 ([D,,,D,,]/4 G,,,2) z3/4 ([D,,,D,,]/4 G,,,2) | %30
 x6 ||[K:F#] x/- E,3 x3/2 z/ z/ z/ | x13/2 | x F,,,2- F,,,[K:treble] x2 | %34
[K:bass] x F,,,2- F,,,[K:treble] x2 |[K:bass] x6 | ([B,,,B,,]3 [F,,,F,,]3) | %37
 ([B,,,B,,]3 [F,,,F,,]3) | x6 | x6 |[K:treble] x6 | x6 | x6 |[K:bass] x6 | x2 x x3 |] %45
V:6
 x5!8va(! x | x2!8va)! x4 | x6 | x6 | x!8va(! x3!8va)! x2 | x6 | x6 | x6 ||[K:Bb][M:3/8] x3 || %9
[M:6/8] x6 | x6 | x6 ||[K:F#] x3 g2 z | x2!8va(! x4 ||[M:3/8] x3!8va)! || %15
[M:6/8] (^^f>gg/=g/ g/^f/f/e/e/f/) | (^^f>gg/f/) (f>gf/g/) | (^^g>aa/g/ g/a/a/g/g/^g/) | %18
 (=g=eg- ge^e) ||[M:9/8] x9 ||[M:6/8] x6 | x6 | x6 | x2!8va(! x4 ||[K:Eb] x6 | x6 | x6!8va)! || %27
[K:C]!8va(! z z!8va)! !tenuto![FGBdg]!8va(! z z!8va)! !tenuto![FGBdg]- | %28
 ([FGBdg]!<(!!tenuto![_A_Bdf_b]!tenuto![=B^e^g^c'] !tenuto![d=eg=be']!tenuto![B^egc']!tenuto![=cd^f=ad'])!<)! | %29
 x6 | x4!8va(! x2 ||[K:F#] x/ [g'b']3 [g'b']3!8va)! | x/!8va(! x2!8va)! x4 | %33
 (^B>!>(!cc/B/) (B/=B/!>)!!pp! B/^A/A/B/) | (^B>!>(!cc/B/) (B/=B/!>)!!pp! B/^A/A/B/-) | %35
 (B3/2!>(! =F/=G/B,/-!>)!!ppp! B,=F,=G,) | x6 | x6 | x6 | ([=EG]3 [=GB]3) | x4!8va(! x2 | %41
 (!arpeggio!.[c'f']3/4.[=c'=g']3/4.[=d'=a']3/4.[=e'b']3/4) (.[^c'f'c'']3/4.[=c'g']3/4.[d'a']3/4.[e'b']3/4) | %42
 (!arpeggio!.[c'f']3/4.[=c'=g']3/4.[=d'=a']3/4.[=e'b']3/4) (.[^c'f'c'']3/4.[=c'g']3/4.[d'a']3/4.[e'b']3/4) | %43
 x6 | x2!8va)! x4 |] %45
V:7
 x6 |!8vb(! x6!8vb)! | x!8vb(! x!8vb)! x2!8vb(! x!8vb)! x | x6 |!8vb(! x6!8vb)! | %5
!8vb(! x3!8vb)! x3 |!8vb(! x3!8vb)! x3 | x6 ||[K:Bb][M:3/8] x3 ||[M:6/8] x6 |!8vb(! x2!8vb)! x4 | %11
 x6 ||[K:F#] x6 | x6 ||[M:3/8] x3 ||[M:6/8] (E,2!8vb(! F, ^^F,G,=A,)!8vb)! | %16
 (E,2!8vb(! F,) (E,2!8vb)!!8vb(! F,)!8vb)! | (E,2!8vb(! F, ^^F,2 G,)!8vb)! | x6 ||[M:9/8] x9 || %20
[M:6/8] x6 | x6 | x6 | x6 ||[K:Eb] x6 | x6 | x6 ||[K:C] x6 | x6 | x6 | x6 ||[K:F#] x13/2 | x13/2 | %33
 x4[K:treble] x2 |[K:bass] x4[K:treble] x2 |[K:bass] x6 | x6 | x6 | x6 | x6 |[K:treble] x6 | x6 | %42
 x6 |[K:bass] x6 | x6 |] %45
V:8
 x6 | x3[K:bass] x3 | x2[K:treble] x[K:bass] x2[K:treble] x | x6 | %4
[K:bass] x2[K:treble] x[K:bass] x3 | x6 | x[K:treble] x5 | x4[K:bass] x2 ||[K:Bb][M:3/8] x3 || %9
[M:6/8] x5[K:treble] x/[K:bass] x/ | x5[K:treble] x/[K:bass] x/ | x[K:treble] x/[K:bass] x9/2 || %12
[K:F#] x6 | x2[K:treble] x4 ||[M:3/8] x3 ||[M:6/8] x6 | x6 | x6 | x6 ||[M:9/8][K:bass] x9 || %20
[M:6/8] x6 | x6 | x6 |[K:treble] x6 ||[K:Eb] x6 | x6 | x6 ||[K:C][K:bass] x6 |[K:treble] x6 | %29
 x2[K:treble] x[K:bass] x2[K:treble] x |[K:bass] x3[K:treble] x3 || %31
[K:F#] x3[I:staff +1] (7:4:7^E,/8C/8^E/8[I:staff -1]G/8-[xB]/8-[xc]/8-[x^e]/8- [GBce]3 | x13/2 | %33
[K:bass] x6 | x6 | x6 |[K:treble] x6 | x6 | x6 | x6 | x6 | x6 | x6 | x6 | x6 |] %45

